packages/icons/src/building-fill.svg

<svg width="24" height="24" viewBox="0 0 24 24" fill="none" xmlns="http://www.w3.org/2000/svg">
<path fill-rule="evenodd" clip-rule="evenodd" d="M20 20H21C21.2652 20 21.5196 20.1054 21.7071 20.2929C21.8946 20.4804 22 20.7348 22 21C22 21.2652 21.8946 21.5196 21.7071 21.7071C21.5196 21.8946 21.2652 22 21 22H3C2.73478 22 2.48043 21.8946 2.29289 21.7071C2.10536 21.5196 2 21.2652 2 21C2 20.7348 2.10536 20.4804 2.29289 20.2929C2.48043 20.1054 2.73478 20 3 20H4V3C4 2.73478 4.10536 2.48043 4.29289 2.29289C4.48043 2.10536 4.73478 2 5 2H19C19.2652 2 19.5196 2.10536 19.7071 2.29289C19.8946 2.48043 20 2.73478 20 3V20ZM9 15V20H15V15C15 14.7348 14.8946 14.4804 14.7071 14.2929C14.5196 14.1054 14.2652 14 14 14H10C9.73478 14 9.48043 14.1054 9.29289 14.2929C9.10536 14.4804 9 14.7348 9 15ZM15 12H14C13.7348 12 13.4804 11.8946 13.2929 11.7071C13.1054 11.5196 13 11.2652 13 11C13 10.7348 13.1054 10.4804 13.2929 10.2929C13.4804 10.1054 13.7348 10 14 10H15C15.2652 10 15.5196 10.1054 15.7071 10.2929C15.8946 10.4804 16 10.7348 16 11C16 11.2652 15.8946 11.5196 15.7071 11.7071C15.5196 11.8946 15.2652 12 15 12ZM9 12H10C10.2652 12 10.5196 11.8946 10.7071 11.7071C10.8946 11.5196 11 11.2652 11 11C11 10.7348 10.8946 10.4804 10.7071 10.2929C10.5196 10.1054 10.2652 10 10 10H9C8.73478 10 8.48043 10.1054 8.29289 10.2929C8.10536 10.4804 8 10.7348 8 11C8 11.2652 8.10536 11.5196 8.29289 11.7071C8.48043 11.8946 8.73478 12 9 12ZM10 8H9C8.73478 8 8.48043 7.89464 8.29289 7.70711C8.10536 7.51957 8 7.26522 8 7C8 6.73478 8.10536 6.48043 8.29289 6.29289C8.48043 6.10536 8.73478 6 9 6H10C10.2652 6 10.5196 6.10536 10.7071 6.29289C10.8946 6.48043 11 6.73478 11 7C11 7.26522 10.8946 7.51957 10.7071 7.70711C10.5196 7.89464 10.2652 8 10 8ZM14 8H15C15.2652 8 15.5196 7.89464 15.7071 7.70711C15.8946 7.51957 16 7.26522 16 7C16 6.73478 15.8946 6.48043 15.7071 6.29289C15.5196 6.10536 15.2652 6 15 6H14C13.7348 6 13.4804 6.10536 13.2929 6.29289C13.1054 6.48043 13 6.73478 13 7C13 7.26522 13.1054 7.51957 13.2929 7.70711C13.4804 7.89464 13.7348 8 14 8Z" fill="black"/>
</svg>

<svg xmlns="http://www.w3.org/2000/svg" width="24" height="24" fill="none" viewBox="0 0 24 24">
  <path fill="#000" fill-rule="evenodd" d="M20 20h1a1 1 0 0 1 0 2H3a1 1 0 0 1 0-2h1V3a1 1 0 0 1 1-1h14a1 1 0 0 1 1 1v17ZM9 15v5h6v-5a1 1 0 0 0-1-1h-4a1 1 0 0 0-1 1Zm6-3h-1a1 1 0 0 1 0-2h1a1 1 0 0 1 0 2Zm-6 0h1a1 1 0 0 0 0-2H9a1 1 0 0 0 0 2Zm1-4H9a1 1 0 0 1 0-2h1a1 1 0 1 1 0 2Zm4 0h1a1 1 0 1 0 0-2h-1a1 1 0 1 0 0 2Z" clip-rule="evenodd"/>
</svg>
